storage/app/icons/phosphoricons/fill/briefcase-fill.svg

<svg xmlns="http://www.w3.org/2000/svg" fill="currentColor" viewBox="0 0 256 256"><path d="M152 112a8 8 0 0 1-8 8h-32a8 8 0 0 1 0-16h32a8 8 0 0 1 8 8m80-40v128a16 16 0 0 1-16 16H40a16 16 0 0 1-16-16V72a16 16 0 0 1 16-16h40v-8a24 24 0 0 1 24-24h48a24 24 0 0 1 24 24v8h40a16 16 0 0 1 16 16M96 56h64v-8a8 8 0 0 0-8-8h-48a8 8 0 0 0-8 8Zm120 57.61V72H40v41.61A184 184 0 0 0 128 136a184 184 0 0 0 88-22.39"/></svg>

<svg xmlns="http://www.w3.org/2000/svg" viewBox="0 0 256 256" fill="currentColor"><path d="M152,112a8,8,0,0,1-8,8H112a8,8,0,0,1,0-16h32A8,8,0,0,1,152,112Zm80-40V200a16,16,0,0,1-16,16H40a16,16,0,0,1-16-16V72A16,16,0,0,1,40,56H80V48a24,24,0,0,1,24-24h48a24,24,0,0,1,24,24v8h40A16,16,0,0,1,232,72ZM96,56h64V48a8,8,0,0,0-8-8H104a8,8,0,0,0-8,8Zm120,57.61V72H40v41.61A184,184,0,0,0,128,136,184,184,0,0,0,216,113.61Z"/></svg>
